dist/img/svg/ic_inst.svg

<svg width="46" height="46" viewBox="0 0 46 46" fill="none" xmlns="http://www.w3.org/2000/svg">
<rect width="46" height="46" rx="22.5" fill="#E1306C"/>
<path d="M23.0075 17.8745C20.1685 17.8745 17.8775 20.1645 17.8775 23.0045C17.8775 25.8425 20.1685 28.1335 23.0075 28.1335C25.8475 28.1335 28.1375 25.8435 28.1375 23.0035C28.1375 20.1645 25.8475 17.8735 23.0075 17.8735V17.8745ZM23.0075 26.3385C22.1236 26.3369 21.2763 25.985 20.6514 25.3599C20.0265 24.7348 19.6748 23.8874 19.6735 23.0035C19.6743 22.1194 20.0258 21.2718 20.6508 20.6465C21.2759 20.0213 22.1234 19.6696 23.0075 19.6685C23.8918 19.6693 24.7396 20.0209 25.3648 20.6462C25.9901 21.2714 26.3417 22.1192 26.3425 23.0035C26.3412 23.8876 25.9894 24.7351 25.3642 25.3602C24.7391 25.9854 23.8916 26.3372 23.0075 26.3385V26.3385ZM29.5435 17.6645C29.5435 18.3295 29.0075 18.8605 28.3475 18.8605C28.1107 18.8607 27.8791 18.7906 27.6821 18.6592C27.4851 18.5277 27.3315 18.3408 27.2408 18.122C27.1501 17.9033 27.1263 17.6625 27.1725 17.4302C27.2186 17.1979 27.3326 16.9846 27.5001 16.8171C27.6676 16.6496 27.8809 16.5356 28.1132 16.4895C28.3455 16.4433 28.5863 16.4671 28.805 16.5578C29.0238 16.6485 29.2107 16.8021 29.3422 16.9991C29.4736 17.1961 29.5437 17.4277 29.5435 17.6645V17.6645ZM32.9405 18.8785C32.8645 17.2765 32.4985 15.8565 31.3245 14.6865C30.1545 13.5165 28.7355 13.1515 27.1335 13.0705C25.4825 12.9765 20.5315 12.9765 18.8795 13.0705C17.2815 13.1465 15.8615 13.5125 14.6875 14.6825C13.5125 15.8525 13.1505 17.2725 13.0705 18.8745C12.9765 20.5265 12.9765 25.4775 13.0705 27.1285C13.1465 28.7315 13.5125 30.1515 14.6865 31.3205C15.8605 32.4905 17.2765 32.8565 18.8785 32.9365C20.5305 33.0305 25.4815 33.0305 27.1325 32.9365C28.7355 32.8605 30.1555 32.4945 31.3245 31.3205C32.4945 30.1505 32.8605 28.7305 32.9405 27.1285C33.0345 25.4775 33.0345 20.5305 32.9405 18.8785V18.8785ZM30.8065 28.9015C30.6367 29.3317 30.3804 29.7224 30.0534 30.0494C29.7264 30.3764 29.3357 30.6327 28.9055 30.8025C27.5885 31.3255 24.4635 31.2045 23.0075 31.2045C21.5525 31.2045 18.4235 31.3205 17.1105 30.8025C16.6802 30.6328 16.2893 30.3765 15.9621 30.0495C15.6349 29.7225 15.3784 29.3317 15.2085 28.9015C14.6865 27.5845 14.8075 24.4595 14.8075 23.0035C14.8075 21.5485 14.6905 18.4185 15.2085 17.1065C15.3783 16.676 15.6347 16.2851 15.9619 15.9579C16.2891 15.6307 16.68 15.3743 17.1105 15.2045C18.4275 14.6825 21.5525 14.8025 23.0075 14.8025C24.4635 14.8025 27.5925 14.6865 28.9055 15.2045C29.336 15.3743 29.7269 15.6307 30.0541 15.9579C30.3813 16.2851 30.6377 16.676 30.8075 17.1065C31.3295 18.4235 31.2085 21.5485 31.2085 23.0035C31.2085 24.4595 31.3285 27.5885 30.8075 28.9015H30.8065Z" fill="white"/>
</svg>

<svg width="46" height="46" viewBox="0 0 46 46" fill="none" xmlns="http://www.w3.org/2000/svg"><rect width="46" height="46" rx="22.5" fill="#E1306C"/><path d="M23.008 17.875a5.122 5.122 0 00-5.13 5.13 5.122 5.122 0 005.13 5.129c2.84 0 5.13-2.29 5.13-5.13s-2.29-5.13-5.13-5.13zm0 8.463a3.34 3.34 0 01-3.334-3.335 3.338 3.338 0 013.334-3.334 3.338 3.338 0 013.335 3.334 3.34 3.34 0 01-3.335 3.335zm6.536-8.674a1.197 1.197 0 11-2.394-.003 1.197 1.197 0 012.393.003zm3.396 1.214c-.075-1.602-.441-3.021-1.615-4.191-1.17-1.17-2.59-1.535-4.191-1.617-1.651-.094-6.602-.094-8.255 0-1.598.076-3.018.442-4.192 1.612-1.175 1.17-1.537 2.59-1.617 4.193-.094 1.651-.094 6.602 0 8.253.076 1.604.442 3.023 1.617 4.192 1.174 1.17 2.59 1.536 4.191 1.617 1.652.094 6.604.094 8.255 0 1.602-.076 3.023-.442 4.192-1.616 1.17-1.17 1.536-2.59 1.616-4.193.093-1.65.093-6.598 0-8.25zm-2.133 10.023a3.376 3.376 0 01-1.901 1.901c-1.317.524-4.442.402-5.898.402-1.456 0-4.584.116-5.898-.402a3.378 3.378 0 01-1.901-1.9c-.522-1.318-.402-4.443-.402-5.899 0-1.454-.117-4.584.402-5.896a3.376 3.376 0 011.901-1.902c1.317-.523 4.442-.402 5.898-.402 1.456 0 4.585-.117 5.898.401a3.376 3.376 0 011.902 1.902c.521 1.317.4 4.442.4 5.897 0 1.456.12 4.585-.4 5.898h-.002z" fill="#fff"/></svg>
